icons/SVG/windows_icon.svg

<?xml version="1.0" encoding="UTF-8"?>
<svg width="300px" height="260px" viewBox="0 0 300 260" version="1.1" xmlns="http://www.w3.org/2000/svg" xmlns:xlink="http://www.w3.org/1999/xlink">
    <!-- Generator: Sketch 42 (36781) - http://www.bohemiancoding.com/sketch -->
    <title>windows_icon</title>
    <desc>Created with Sketch.</desc>
    <defs></defs>
    <g id="Page-1" stroke="none" stroke-width="1" fill="none" fill-rule="evenodd">
        <g id="windows_icon" fill="#1A1918">
            <g id="Windows_Icon">
                <polygon id="Fill-1" points="134.251965 127.228817 95.8237991 127.707113 95.8237991 93.1466617 134.198581 85.6496692"></polygon>
                <polygon id="Fill-2" points="134.265721 132.135291 95.8375546 131.656343 95.8375546 166.216794 134.212336 173.713787"></polygon>
                <polygon id="Fill-3" points="200.886354 186.995258 139.406004 174.893855 139.453493 132.141449 200.900764 132.930897"></polygon>
                <polygon id="Fill-4" points="200.886354 72.3529499 139.406004 84.455005 139.453493 127.207411 200.900764 126.417637"></polygon>
                <path d="M80.3781878,249.963707 L219.622074,249.963707 L289.24369,130.000424 L219.622074,10.0364887 L80.3781878,10.0364887 L10.7562445,130.000424 L80.3781878,249.963707 Z M222.458319,259.738143 L77.5419432,259.738143 C75.7868122,259.738143 74.1649782,258.806639 73.2875764,257.294534 L0.829388646,132.444033 C-0.0483406114,130.931927 -0.0483406114,129.06892 0.829388646,127.556815 L73.2875764,2.70566165 C74.1649782,1.19355639 75.7868122,0.262052632 77.5419432,0.262052632 L222.458319,0.262052632 C224.21345,0.262052632 225.834956,1.19355639 226.712686,2.70566165 L299.170546,127.556815 C300.048275,129.06892 300.048275,130.931927 299.170546,132.444033 L226.712686,257.294534 C225.834956,258.806639 224.21345,259.738143 222.458319,259.738143 L222.458319,259.738143 Z" id="Fill-5"></path>
            </g>
        </g>
    </g>
</svg>

<svg width="300" height="260" viewBox="0 0 300 260" xmlns="http://www.w3.org/2000/svg"><title>windows_icon</title><g fill="#57B8BA" fill-rule="evenodd"><path d="M134.252 127.229l-38.428.478v-34.56l38.375-7.497zm.014 4.906l-38.428-.479v34.56l38.374 7.498zm66.62 54.86l-61.48-12.101.047-42.753 61.448.79zm0-114.642l-61.48 12.102.047 42.752 61.448-.79z"/><path d="M80.378 249.964h139.244L289.244 130 219.622 10.036H80.378L10.756 130l69.622 119.964zm142.08 9.774H77.542a4.917 4.917 0 0 1-4.254-2.443L.829 132.444a4.865 4.865 0 0 1 0-4.887L73.288 2.706A4.917 4.917 0 0 1 77.542.262h144.916a4.92 4.92 0 0 1 4.255 2.444l72.458 124.85a4.865 4.865 0 0 1 0 4.888l-72.458 124.85a4.917 4.917 0 0 1-4.255 2.444z"/></g></svg>
